X: 23
T:Wind That Shakes the Barley, The
M:C|
L:1/8
R:Reel
K:D
B[|A2AB AFED|B2BA BcdB|A2AB AFED|gfed BcdB|!
A2AB AFED|B2BA BcdB|A2AB AFED|gfed Bcde|]!
f2fd g2ge|f2fd Bcde|f2fd g2fg|afed Bcde|!
~f3d ~g3e|~f3d Bcde|defg afbf|gfed BcdB|]!
